packages/icon/src/svg/article.icon.svg

<svg role="img" aria-label="article icon" viewBox="0 0 24 24" xmlns="http://www.w3.org/2000/svg">
  <path d="M4 5.25C4 5.11193 4.11193 5 4.25 5H19.75C19.8881 5 20 5.11193 20 5.25V6.75C20 6.88807 19.8881 7 19.75 7H4.25C4.11193 7 4 6.88807 4 6.75V5.25ZM4 9.25C4 9.11193 4.11193 9 4.25 9H19.75C19.8881 9 20 9.11193 20 9.25V10.75C20 10.8881 19.8881 11 19.75 11H4.25C4.11193 11 4 10.8881 4 10.75V9.25ZM4 13.25C4 13.1119 4.11193 13 4.25 13H19.75C19.8881 13 20 13.1119 20 13.25V14.75C20 14.8881 19.8881 15 19.75 15H4.25C4.11193 15 4 14.8881 4 14.75V13.25ZM4 17.25C4 17.1119 4.11193 17 4.25 17H15.75C15.8881 17 16 17.1119 16 17.25V18.75C16 18.8881 15.8881 19 15.75 19H4.25C4.11193 19 4 18.8881 4 18.75V17.25Z" />
</svg>

<svg aria-label="article icon" viewBox="0 0 24 24"><path d="M4 5.25A.25.25 0 014.25 5h15.5a.25.25 0 01.25.25v1.5a.25.25 0 01-.25.25H4.25A.25.25 0 014 6.75v-1.5zm0 4A.25.25 0 014.25 9h15.5a.25.25 0 01.25.25v1.5a.25.25 0 01-.25.25H4.25a.25.25 0 01-.25-.25v-1.5zm0 4a.25.25 0 01.25-.25h15.5a.25.25 0 01.25.25v1.5a.25.25 0 01-.25.25H4.25a.25.25 0 01-.25-.25v-1.5zm0 4a.25.25 0 01.25-.25h11.5a.25.25 0 01.25.25v1.5a.25.25 0 01-.25.25H4.25a.25.25 0 01-.25-.25v-1.5z"/></svg>
